packages/dnb-design-system-portal/src/docs/quickguide-designer/assets/space-within.svg

<svg width="256" height="136" viewBox="0 0 256 136" fill="none" xmlns="http://www.w3.org/2000/svg" xmlns:xlink="http://www.w3.org/1999/xlink">
<rect x="84" y="16" width="106" height="108" fill="url(#pattern0)" fill-opacity="0.25"/>
<path d="M8 72L72 16M8 88L72 128" stroke="#B3B3B3" stroke-linecap="round" stroke-dasharray="2 3"/>
<path d="M92.5001 22H85.2501C81.246 22 78 25.745 78 29.7491V115C78 119.004 81.246 122 85.2501 122H186.751C190.755 122 194.001 119.004 194.001 115V29.7491C194.001 25.745 190.755 22 186.751 22H179.501" stroke="#333333" stroke-width="12" stroke-linecap="round"/>
<line x1="105.75" y1="60" x2="166.251" y2="60" stroke="#333333" stroke-width="12" stroke-linecap="round"/>
<line x1="127.496" y1="22" x2="144.496" y2="22" stroke="#333333" stroke-width="12" stroke-linecap="round"/>
<line x1="110" y1="14" x2="110" y2="31.0002" stroke="#333333" stroke-width="12" stroke-linecap="round"/>
<line x1="161.996" y1="31" x2="161.996" y2="13.9998" stroke="#333333" stroke-width="12" stroke-linecap="round"/>
<path d="M10.8126 73.8125H9.90631C9.40577 73.8125 9 74.2183 9 74.7188V85.5946C9 86.0951 9.40577 86.5009 9.90631 86.5009H22.5947C23.0953 86.5009 23.501 86.0951 23.501 85.5946V74.7188C23.501 74.2183 23.0953 73.8125 22.5947 73.8125H21.6884" stroke="#333333" stroke-width="1.5" stroke-linecap="round"/>
<line x1="12.4688" y1="78.5005" x2="20.0319" y2="78.5005" stroke="#333333" stroke-width="1.5" stroke-linecap="round"/>
<line x1="15.1875" y1="73.969" x2="17.3128" y2="73.969" stroke="#333333" stroke-width="1.5" stroke-linecap="round"/>
<line x1="13" y1="72.75" x2="13" y2="74.8753" stroke="#333333" stroke-width="1.5" stroke-linecap="round"/>
<line x1="19.5" y1="74.8752" x2="19.5" y2="72.75" stroke="#333333" stroke-width="1.5" stroke-linecap="round"/>
<defs>
<pattern id="pattern0" patternContentUnits="objectBoundingBox" width="0.301887" height="0.296297">
<use xlink:href="#image0" transform="scale(0.00471698)"/>
</pattern>
<image id="image0" width="64" height="64" xlink:href="data:image/png;base64,iVBORw0KGgoAAAANSUhEUgAAAEAAAABACAYAAACqaXHeAAAA40lEQVR4Xu3bQQ6EQAhEUbj/oXsO8Sdh4XOvJAi/qkF3Zt6E6710++xuiD6T40uACtACqYlzD2IACFKBkoHcgmSQDJJBMngKIT6ADygF6DSYfcCLTzg/z0eGrASogDbT0gKxB2MB5pkiBoBgrEEMwIBjLx9fAAiCIAhygmkkRgYjhWMHditsL2AvYC+QIHjdwzk+BmAABmBAWc1kCF0bKRAEQRAEQRAMGaACbaCUz/P5BRiKxhQaiV07uRjfYgQDMKDpGAhGCMUCzD4CBEEw1iAGYIBPZMJh+g8/P8cKpAJfV4EfMee/sLtaEFIAAAAASUVORK5CYII="/>
</defs>
</svg>

<svg fill="none" height="136" viewBox="0 0 256 136" width="256" xmlns="http://www.w3.org/2000/svg" xmlns:xlink="http://www.w3.org/1999/xlink"><pattern id="a" height=".3" patternContentUnits="objectBoundingBox" width=".3"><image height="64" transform="scale(.00472)" width="64" xlink:href="data:image/png;base64,iVBORw0KGgoAAAANSUhEUgAAAEAAAABACAYAAACqaXHeAAAA40lEQVR4Xu3bQQ6EQAhEUbj/oXsO8Sdh4XOvJAi/qkF3Zt6E6710++xuiD6T40uACtACqYlzD2IACFKBkoHcgmSQDJJBMngKIT6ADygF6DSYfcCLTzg/z0eGrASogDbT0gKxB2MB5pkiBoBgrEEMwIBjLx9fAAiCIAhygmkkRgYjhWMHditsL2AvYC+QIHjdwzk+BmAABmBAWc1kCF0bKRAEQRAEQRAMGaACbaCUz/P5BRiKxhQaiV07uRjfYgQDMKDpGAhGCMUCzD4CBEEw1iAGYIBPZMJh+g8/P8cKpAJfV4EfMee/sLtaEFIAAAAASUVORK5CYII="/></pattern><path d="m84 16h106v108h-106z" fill="url(#a)" fill-opacity=".25"/><g stroke-linecap="round"><path d="m8 72 64-56m-64 72 64 40" stroke="#b3b3b3" stroke-dasharray="2 3"/><path d="m92.5 22h-7.25c-4 0-7.25 3.75-7.25 7.75v85.25c0 4 3.25 7 7.25 7h101.5c4 0 7.25-3 7.25-7v-85.25c0-4-3.25-7.75-7.25-7.75h-7.25m-73.75 38h60.5m-38.75-38h17m-34.5-8v17m52 0v-17" stroke="#333" stroke-width="12"/><path d="m10.81 73.81h-.9c-.5 0-.91.4-.91.9v10.89c0 .5.4.91.9.91h12.7c.5 0 .9-.4.9-.9v-10.9c0-.5-.4-.9-.9-.9h-.91m-9.22 4.69h7.56m-4.84-4.53h2.12m-4.31-1.22v2.13m6.5 0v-2.13" stroke="#333" stroke-width="1.5"/></g></svg>
